X: 1
T:The Cliffs of Moher
M:6/8
L:1/8
Q:80
C:arr. Kent Hiestand
S:Jig
K:HP
{ag}a3gag|
{g}eaf{a}ged|
{gcd}c2A{g}BAG|  !
{g}Bcd{g}efg|
{ag}a3gag|
{g}eaf{a}ged|  !
{gcd}c2A{g}BAG|
{g}Bcd{gef}e3:|
{g}efe{g}dB{G}A|  !
{g}efe{g}dB{G}A|
{gGd}G2B{g}dB{G}A|
{gGd}G3{g}dBd|  !
{g}efe{g}dB{G}A|
{g}ege{g}dB{G}A|
{g}GAB{g}dB{G}A|  !
{g}BAG{AGAG}A3|
{g}efe{g}dB{G}A|
{g}ege{g}dB{G}A|  !
{gGd}G2B{g}dB{G}A|
{gGd}G3{g}dBd|
{g}efe{g}de{A}e|  !
{g}ce{A}e{g}Be{A}e|
{g}Bcd{g}edB|
{g}efg{ag}a3|]  !
